X: 2
T: Bonnie George Campbell
M: 3/4
K: F
L: 1/4
"F" F > D C | "Dm" C < F A | "Gm" G > F G | "Am"  A2 "C" G | "F" F > D C |
w: Hie up-on Hie-lands, and laigh up-on Tay, - Bon-nie George
w: Out cam his moth-er, dear, greet-ing fu sair, And out cam his
w: Sad-dled and bri-dled and boot-ed rode he,  A plume in his
"Dm" C < D (F3/4G1/4) | "F" A > G A | "Am" c2 (A/c/) | "Dm" d > c A | "Am" c > A G |
w: Camp-bell rode - out on a day.  He - sad-dled, he bri-dled, and
w: bon-nie bryde, - riv-ing her hair.  'The - mead-ow lies green, - the
w: hel-met, a - sword at his knee.  But - toom cam his sad-dle, all
"F" A > G "Dm" F | "Bb" D2 (A/G/) | "F" F > D C | "Dm" C D F | "Bb" d > c A | "C" G2 "F" z |
w: gal-lant rode he,  And - hame cam his guid horse, but nev-er cam he.
w: corn is un-shorn,  But - bon-nie George Camp-bell will nev-er re-turn!
w: blood-y to see,  Oh - hame cam his guid horse, but nev-er cam he!

